X:39
T:Cornish Wassail (Nancarrow-Mountford)
%%VWML:SBG-1-2-504-1
F:http://www.vwml.org/record/SBG/1/2/504
Z:Original Sibelius transcriptions by M. & S. Graebe
L:1/8
M:6/8
I:linebreak $
K:D
V:1 treble nm="P1"
V:2 treble 
V:1
 D | F2 F A2 d | (BG) B A2 A | (Bd) B (AF) A | B/ B3/2 A D2 | (F/D/) | D3/2 D/ D A2 A |$ %7
w: Was-|sail! Was- sail, was-|sail _ was- sail And|joy _ come to _ our|jolly- * was- sail|||
 B3/2 A/ ^G A2 A | B3/2 B/ B A F A | G F E F2 A | D3/2 D/ D A/ A3/2 A | B3/2 A/ ^G A2 A | %12
w: |||||
 B3/2 c/ B A F A |$ G F E (FG) A | (GF) E D2 D | F2 F A2 d | (BG) B A2 A | (Bd) B (AF) A | %18
w: ||||||
 [GB]/ [FB] [EA] D2 x/"^D.S." x | %19
w: |
V:2
 x | x6 | x6 | x6 | G F E x2 | x | x6 |$ x6 | x6 | x6 | x6 | x6 | x6 |$ x6 | x6 | x6 | x6 | x6 | %18
 x6 | %19
T:Cornish Wassail (Mountford)
F:http://www.vwml.org/record/SBG/1/2/504
Z:Original Sibelius transcriptions by M. & S. Graebe
M:6/8
I:linebreak $
K:D
V:1 treble nm="P1"
V:1
 A/F/ | D3/4 F A A2 d | B3/2 B/ B A2 A | B3/2 B/ B A F A | G F E F2 (A/F/) |$ D3/2 F/ A A/ A3/2 d | %6
w: ||||||
 B3/2 B/ B A2 A | B3/2 B/ B A F A | G F E (FA) A | GF E D2 z |$ !fermata!F2 E2 z2 | G3 (F/d/) d z | %12
w: ||||Was- sail|was- il * *|
 B3 A2 A | (Bd) B (AF) A | G F E !fermata!D2 x | %15
w: was- sail, And|j- oy come to- * our|jol- ly was- sail|
T:Cornish Wassail (Matla)
F:http://www.vwml.org/record/SBG/1/2/504
Z:Original Sibelius transcriptions by M. & S. Graebe
M:3/4
I:linebreak $
K:F
V:1 treble nm="P1"
V:1
 D | !fermata!F2 G | !fermata!A2"^tempo" z | A A A | A G F/ F/ | A B c | (d c) F |$ A A A/ A/ | %8
w: Was-|sail was-|sail|master _ &|mis- sus zit- ting|down by the|fi- re, While|we poor jol- ly|
 A G F | A B c |[M:4/4] (d c) F/ F/ F |[M:3/4] G G C | !fermata!F2 x | %13
w: 'sail- ors are|tramping thro the|mi- re sing- ing our|jol- ly was-|sail!|

